src/lib/packages/icons/src/assets/filled/usb-drive.svg

<svg width="24" height="24" viewBox="0 0 24 24" fill="none" xmlns="http://www.w3.org/2000/svg">
<path d="M16.5 8H7.5C6.5 8 6 8.5 6 9.5V18C6 20 7 21 9 21H15C17 21 18 20 18 18V9.5C18 8.5 17.5 8 16.5 8ZM13.5 17.75H10.5C10.086 17.75 9.75 17.414 9.75 17C9.75 16.586 10.086 16.25 10.5 16.25H13.5C13.914 16.25 14.25 16.586 14.25 17C14.25 17.414 13.914 17.75 13.5 17.75ZM15 3H9C8.45 3 8 3.45 8 4V6.69995C8 6.86595 8.13405 7 8.30005 7H15.7C15.866 7 16 6.86595 16 6.69995V4C16 3.45 15.55 3 15 3ZM10.5 6.25C10.086 6.25 9.75 5.914 9.75 5.5C9.75 5.086 10.086 4.75 10.5 4.75C10.914 4.75 11.25 5.086 11.25 5.5C11.25 5.914 10.914 6.25 10.5 6.25ZM13.5 6.25C13.086 6.25 12.75 5.914 12.75 5.5C12.75 5.086 13.086 4.75 13.5 4.75C13.914 4.75 14.25 5.086 14.25 5.5C14.25 5.914 13.914 6.25 13.5 6.25Z" fill="currentColor"/>
</svg>

<svg xmlns="http://www.w3.org/2000/svg" width="24" height="24" fill="none"><path fill="currentColor" d="M16.5 8h-9C6.5 8 6 8.5 6 9.5V18c0 2 1 3 3 3h6c2 0 3-1 3-3V9.5c0-1-.5-1.5-1.5-1.5Zm-3 9.75h-3a.75.75 0 0 1 0-1.5h3a.75.75 0 0 1 0 1.5ZM15 3H9c-.55 0-1 .45-1 1v2.7a.3.3 0 0 0 .3.3h7.4a.3.3 0 0 0 .3-.3V4c0-.55-.45-1-1-1Zm-4.5 3.25a.75.75 0 1 1 0-1.5.75.75 0 0 1 0 1.5Zm3 0a.75.75 0 1 1 0-1.5.75.75 0 0 1 0 1.5Z"/></svg>
